X:1
T:Title
%%score { ( 1 4 ) | ( 2 3 ) }
L:1/8
Q:1/4=100
M:2/4
K:C
V:1 treble nm="Grand Piano"
V:4 treble 
V:2 bass 
V:3 bass 
V:1
 C>E [CG]>[Ec] | [CA]2 G2 | C>E [EG]>c | [CA]4 | [B,G]>[B,A] [B,F]>[B,G] | [B,E]>[B,F] [B,D]>E | %6
w: ????~??????? * * *||||||
 C>D B,>D | C4[K:bass] | C>[K:treble]E [CG]>[Ec] | [CA]2 G2 | C>E [EG]>c | [CA]4 | %12
w: ||||||
 [B,G]>[B,A] [B,F]>[B,G] | [B,E]>[B,F] [B,D]>E | C>D B,>D | [G,C]4 | [CG]>[CA] [Cc]>[CA] | %17
w: |||||
 [EG]2 [CE]2 | [CG]>[CA] [Cc]>[CA] | [CG]4 | [B,G]>[B,A] [B,B]>[Gc] | [Fd]2 [FB]2 | [CG]2 [Cc]2 | %23
w: ||||||
 [Ec]4 | [CG]>[CA] [Cc]>[CA] | [EG]2 [CE]2 | [CG]>[CA] [Cc]>[CA] | [CG]4 | %28
w: |||||
 [B,G]>[B,A] [B,F]>[B,G] | [B,E]>[B,F] [B,D]>E | C>D B,>D | [G,C]4 |] %32
w: ||||
V:2
 [C,G,]2 z2 | [F,,F,]2 [C,E,C]2 | z2 [C,G,]2 | F,,2 F,2 | [G,,G,]2 [G,,F,]2 | [G,,E,]2 z z/ B,/ | %6
 [C,E,]2 [G,,F,]2 | G,4 | [C,G,]2 z2 | [F,,F,]2 [C,E,C]2 | z2 [C,G,]2 | F,,2 F,2 | %12
 [G,,G,]2 [G,,F,]2 | [G,,E,]2 z z/ B,/ | [C,E,]2 [G,,F,]2 | C,2 C,,2 | [C,,C,]2 [C,G,]2 | %17
 [C,,C,]2 [C,G,]2 | [C,,C,]2 [C,G,]2 | [C,,C,]2 z2 | [G,,G,]2 [G,,G,]2 | [G,,G,]4 | %22
 [C,,C,]2 [C,G,]2 | [C,G,]4 | [C,,C,]2 [C,G,]2 | [C,,C,]2 [C,G,]2 | [C,,C,]2 [C,G,]2 | %27
 [C,,C,]2 z2 | [G,,G,]2 [G,,F,]2 | [G,,E,]2 z z/ B,/ | [C,E,]2 [G,,F,]2 | [C,,C,]4 |] %32
V:3
 z z/ C/ [C,,C,]2 | x4 | [C,,C,]2 z z/ E/ | x4 | x4 | z2 [G,,D,]2 | x4 | C,2 z2 | %8
 z z/ C/ [C,,C,]2 | x4 | [C,,C,]2 z z/ E/ | x4 | x4 | z2 [G,,D,]2 | x4 | x4 | x4 | x4 | x4 | x4 | %20
 x4 | x4 | x4 | x4 | x4 | x4 | x4 | x4 | x4 | z2 [G,,D,]2 | x4 | x4 |] %32
V:4
 x4 | x4 | x4 | z2 A,2 | x4 | x4 | x4 | z2[K:bass] C,,2 | x3/2[K:treble] x5/2 | x4 | x4 | z2 A,2 | %12
 x4 | x4 | x4 | x4 | x4 | x4 | x4 | z2 [E,G,]2 | x4 | x4 | x4 | x4 | x4 | x4 | x4 | z2 [E,G,]2 | %28
 x4 | x4 | x4 | x4 |] %32

